T: Old Tom Of Oxford
M: 4/4
L: 1/8
K: Gmaj
|GABc d2 ef|g2 d2 c2 B2|A4 G4|g2 d2 c2 B2|A4 G4:||g2 d2 c2 B2|A4 G4:||
